mimetypes/scalable/application-x-flash-video.svg

<?xml version="1.0" encoding="UTF-8" standalone="no"?>
<!-- Created with Inkscape (http://www.inkscape.org/) -->

<svg
   xmlns:dc="http://purl.org/dc/elements/1.1/"
   xmlns:cc="http://creativecommons.org/ns#"
   xmlns:rdf="http://www.w3.org/1999/02/22-rdf-syntax-ns#"
   xmlns:svg="http://www.w3.org/2000/svg"
   xmlns="http://www.w3.org/2000/svg"
   xmlns:sodipodi="http://sodipodi.sourceforge.net/DTD/sodipodi-0.dtd"
   xmlns:inkscape="http://www.inkscape.org/namespaces/inkscape"
   id="svg11037"
   height="96"
   width="96"
   version="1.1"
   inkscape:version="0.48.5 r10040"
   sodipodi:docname="gnome-mime-application-x-shockwave-flash.svg">
  <sodipodi:namedview
     pagecolor="#ffffff"
     bordercolor="#666666"
     borderopacity="1"
     objecttolerance="10"
     gridtolerance="10"
     guidetolerance="10"
     inkscape:pageopacity="0"
     inkscape:pageshadow="2"
     inkscape:window-width="640"
     inkscape:window-height="480"
     id="namedview20781" />
  <defs
     id="defs11039">
    <linearGradient
       id="linearGradient11642"
       y2="1046.1"
       gradientUnits="userSpaceOnUse"
       y1="962.62"
       gradientTransform="matrix(1.15 0 0 1.15 -7.1999 -150.65)"
       x2="48"
       x1="48">
      <stop
         id="stop3702"
         style="stop-color:#e6e6e6"
         offset="0" />
      <stop
         id="stop3704"
         style="stop-color:#f5f5f5"
         offset="1" />
    </linearGradient>
    <linearGradient
       id="linearGradient3736"
       y2="12.798"
       gradientUnits="userSpaceOnUse"
       x2="62.337"
       gradientTransform="matrix(.87486 0 0 .90699 2.7627 6.3343)"
       y1="79.015"
       x1="62.337">
      <stop
         id="stop3176"
         style="stop-color:#c30000"
         offset="0" />
      <stop
         id="stop3178"
         style="stop-color:#f12300"
         offset="1" />
    </linearGradient>
    <clipPath
       id="clipPath3009"
       clipPathUnits="userSpaceOnUse">
      <path
         id="path3011"
         style="opacity:.15;fill:#fff"
         d="m-2 956.36h-96v33.562l96 25.687v-59.25z" />
    </clipPath>
  </defs>
  <metadata
     id="metadata11042">
    <rdf:RDF>
      <cc:Work
         rdf:about="">
        <dc:format>image/svg+xml</dc:format>
        <dc:type
           rdf:resource="http://purl.org/dc/dcmitype/StillImage" />
        <dc:title />
      </cc:Work>
    </rdf:RDF>
  </metadata>
  <g
     id="layer1"
     transform="translate(0 -956.36)">
    <rect
       id="rect3867"
       style="fill:url(#linearGradient11642)"
       rx="25"
       ry="25"
       height="92"
       width="92"
       y="958.36"
       x="2" />
    <g
       id="g3082"
       transform="translate(0 956.36)">
      <path
         id="rect3362"
         style="opacity:.5;fill:#999"
         d="m12 12v17.938l8.094-17.938h-8.094zm9.906 0 8.094 17.938v-17.938h-8.094zm-0.906 7.031l-3.0312 7h2.9286l1.7188 3.9688h3.2277l-2.375-5.2812-0.0625-0.125-2.406-5.563z" />
      <path
         id="path3727"
         style="fill:url(#linearGradient3736)"
         d="m72 18.02v12.07c-12.051 0.212-15.013 11.964-15.013 11.964h9.0894v12.07h-14.094c-8.476 26.152-27.982 23.823-27.982 23.823v-12.07s12.378 2.2962 18.689-20.752c7.895-28.832 29.311-27.105 29.311-27.105z" />
      <path
         id="path2902"
         style="opacity:.2"
         d="m71.062 18c-4.207 0.064-21.466 1.898-28.374 27.125-6.312 23.048-18.688 20.75-18.688 20.75v12.062s19.492 2.3394 27.969-23.812h14.094v-12.062h-9.0625s2.9489-11.757 15-11.969v-12.062s-0.33649-0.04035-0.9375-0.03125zm-0.062 1.062v10.157c-5.7567 0.42184-9.5735 3.3842-11.812 6.3438-2.3709 3.1339-3.1562 6.25-3.1562 6.25a0.99278 0.99278 0 0 0 0.968 1.249h8.0625v10.062h-13.094a0.99278 0.99278 0 0 0 -0.9375 0.6875c-4.1668 12.855-10.928 18.547-16.625 21.125-4.8665 2.2018-8.328 2.0722-9.4062 2l0.001-10.062c0.40845 0.02126 0.47619 0.07815 1.1562 0 1.3787-0.15844 3.2404-0.64416 5.3125-1.875 4.1443-2.4617 8.9859-7.9333 12.188-19.625 3.885-14.19 10.984-20.665 17.093-23.719 5.266-2.632 9.111-2.629 10.25-2.594z" />
      <path
         id="path3749"
         style="opacity:.6;fill:#800000"
         d="m71.062 18c-4.207 0.064-21.466 1.898-28.374 27.125-6.312 23.048-18.688 20.75-18.688 20.75v1s12.376 2.2983 18.688-20.75c7.894-28.831 29.312-27.094 29.312-27.094v-1s-0.33649-0.04035-0.9375-0.03125zm-13.75 24.062c-0.20527 0.57417-0.3125 1-0.3125 1h9.0625v-1h-8.75z" />
      <path
         id="path3758"
         style="opacity:.8;fill:#fff"
         d="m72 30.094c-12.051 0.212-15 11.968-15 11.968h0.3125c0.992-2.772 4.704-10.793 14.688-10.968v-1zm-20.031 24.031c-8.477 26.152-27.969 23.813-27.969 23.813v1s19.492 2.3394 27.969-23.812h14.094v-1h-14.094z" />
    </g>
    <rect
       id="rect3003"
       style="opacity:.15;fill:#fff"
       clip-path="url(#clipPath3009)"
       rx="25"
       ry="25"
       transform="translate(98 3.8281e-7)"
       width="92"
       y="958.36"
       x="-96"
       height="92" />
  </g>
</svg>

<?xml version="1.0" encoding="UTF-8" standalone="no"?>
<!-- Created with Inkscape (http://www.inkscape.org/) -->

<svg
   xmlns:dc="http://purl.org/dc/elements/1.1/"
   xmlns:cc="http://creativecommons.org/ns#"
   xmlns:rdf="http://www.w3.org/1999/02/22-rdf-syntax-ns#"
   xmlns:svg="http://www.w3.org/2000/svg"
   xmlns="http://www.w3.org/2000/svg"
   xmlns:xlink="http://www.w3.org/1999/xlink"
   xmlns:sodipodi="http://sodipodi.sourceforge.net/DTD/sodipodi-0.dtd"
   xmlns:inkscape="http://www.inkscape.org/namespaces/inkscape"
   id="svg11037"
   height="96"
   width="96"
   version="1.1"
   inkscape:version="0.48.5 r10040"
   sodipodi:docname="application-x-flash-video.svg">
  <sodipodi:namedview
     pagecolor="#ffffff"
     bordercolor="#666666"
     borderopacity="1"
     objecttolerance="10"
     gridtolerance="10"
     guidetolerance="10"
     inkscape:pageopacity="0"
     inkscape:pageshadow="2"
     inkscape:window-width="1366"
     inkscape:window-height="717"
     id="namedview20781"
     showgrid="false"
     inkscape:zoom="2.4583333"
     inkscape:cx="48"
     inkscape:cy="48"
     inkscape:window-x="0"
     inkscape:window-y="25"
     inkscape:window-maximized="1"
     inkscape:current-layer="svg11037" />
  <defs
     id="defs11039">
    <linearGradient
       id="linearGradient11642"
       y2="1046.1"
       gradientUnits="userSpaceOnUse"
       y1="962.62"
       gradientTransform="matrix(1.15,0,0,1.15,-7.1999,-150.65)"
       x2="48"
       x1="48">
      <stop
         id="stop3702"
         style="stop-color:#e6e6e6"
         offset="0" />
      <stop
         id="stop3704"
         style="stop-color:#f5f5f5"
         offset="1" />
    </linearGradient>
    <linearGradient
       id="linearGradient3736"
       y2="12.798"
       gradientUnits="userSpaceOnUse"
       x2="62.337"
       gradientTransform="matrix(0.87486,0,0,0.90699,2.7627,6.3343)"
       y1="79.015"
       x1="62.337">
      <stop
         id="stop3176"
         style="stop-color:#c30000"
         offset="0" />
      <stop
         id="stop3178"
         style="stop-color:#f12300"
         offset="1" />
    </linearGradient>
    <clipPath
       id="clipPath3009"
       clipPathUnits="userSpaceOnUse">
      <path
         id="path3011"
         style="opacity:.15;fill:#fff"
         d="m-2 956.36h-96v33.562l96 25.687v-59.25z" />
    </clipPath>
    <linearGradient
       inkscape:collect="always"
       xlink:href="#linearGradient11642"
       id="linearGradient3448"
       gradientUnits="userSpaceOnUse"
       gradientTransform="matrix(1.15,0,0,1.15,-7.1999,-1107.01)"
       x1="48"
       y1="962.62"
       x2="48"
       y2="1046.1" />
    <linearGradient
       inkscape:collect="always"
       xlink:href="#linearGradient3736"
       id="linearGradient3450"
       gradientUnits="userSpaceOnUse"
       gradientTransform="matrix(0.87486,0,0,0.90699,2.7627,6.3343)"
       x1="62.337"
       y1="79.015"
       x2="62.337"
       y2="12.798" />
  </defs>
  <metadata
     id="metadata11042">
    <rdf:RDF>
      <cc:Work
         rdf:about="">
        <dc:format>image/svg+xml</dc:format>
        <dc:type
           rdf:resource="http://purl.org/dc/dcmitype/StillImage" />
        <dc:title />
      </cc:Work>
    </rdf:RDF>
  </metadata>
  <rect
     style="opacity:0.98999999000000005;fill:#ff2a2a;fill-opacity:1;stroke:none"
     id="rect2985"
     width="80"
     height="80"
     x="8"
     y="-88"
     rx="10.769231"
     ry="10.769231"
     transform="matrix(0,1,-1,0,0,0)" />
  <path
     id="rect3362"
     style="opacity:0.50000000000000000;fill:#e6e6e6"
     d="M 12,12 V 29.938 L 20.094,12 H 12 z M 21.906,12 30,29.938 V 12 H 21.906 z M 21,19.031 l -3.0312,7 h 2.9286 l 1.7188,3.9688 h 3.2277 l -2.375,-5.2812 -0.0625,-0.125 -2.406,-5.563 z"
     inkscape:connector-curvature="0" />
  <path
     id="path3727"
     style="fill:#e6e6e6"
     d="M 72,18.02 V 30.09 C 59.949,30.302 56.987,42.054 56.987,42.054 h 9.0894 v 12.07 h -14.094 c -8.476,26.152 -27.982,23.823 -27.982,23.823 v -12.07 c 0,0 12.378,2.2962 18.689,-20.752 7.895,-28.832 29.311,-27.105 29.311,-27.105 z"
     inkscape:connector-curvature="0" />
</svg>
